.icons/Gruvbox-Plus-Dark/apps/scalable/freedoom2.svg

<svg xmlns="http://www.w3.org/2000/svg" style="isolation:isolate" width="256" height="256" viewBox="0 0 256 256">
 <defs>
  <clipPath id="_clipPath_xp8rrppqG6Yh3vH7X2yUtnnmAYqXQVYA">
   <rect width="256" height="256"/>
  </clipPath>
 </defs>
 <g clip-path="url(#_clipPath_xp8rrppqG6Yh3vH7X2yUtnnmAYqXQVYA)">
  <g filter="url(#UicxsriIrzJ4wOg86Xu7LXMrZRtypedp)">
   <linearGradient id="_lgradient_63" x1="0" x2="0" y1="0" y2="1" gradientTransform="matrix(244.648309,0,0,228.338396,5.68,11.95)" gradientUnits="userSpaceOnUse">
    <stop offset="0%" style="stop-color:#fb4934"/>
    <stop offset="100%" style="stop-color:#cc241d"/>
   </linearGradient>
   <path fill="url(#_lgradient_63)" d="M 165.688919 11.95 C 239.744626 11.95 250.328309 22.507198 250.328309 96.493859 L 250.328309 155.744653 C 250.328309 229.73091 239.744626 240.288396 165.688919 240.288396 L 90.319393 240.288396 C 16.26369 240.288396 5.68 229.73091 5.68 155.744653 L 5.68 96.493859 C 5.68 22.507198 16.26369 11.95 90.319393 11.95 L 165.688919 11.95 Z"/>
  </g>
  <g opacity=".4">
   <linearGradient id="_lgradient_64" x1=".517" x2=".517" y1="0" y2="1" gradientTransform="matrix(244.65,0,0,228.34,5.68,11.95)" gradientUnits="userSpaceOnUse">
    <stop offset="0%" style="stop-color:#ebdbb2"/>
    <stop offset="12.5%" stop-opacity=".098" style="stop-color:#ebdbb2"/>
    <stop offset="92.5%" stop-opacity=".098" style="stop-color:#282828"/>
    <stop offset="100%" stop-opacity=".498" style="stop-color:#282828"/>
   </linearGradient>
   <path fill="url(#_lgradient_64)" fill-rule="evenodd" d="M 165.06803 11.951234 C 169.395994 11.941409 173.723944 11.990533 178.051908 12.088781 C 181.927398 12.167379 185.802873 12.31475 189.678362 12.540721 C 193.1309 12.737216 196.583423 13.022134 200.026115 13.395476 C 203.085193 13.729518 206.144271 14.181458 209.173842 14.741469 C 211.888645 15.242533 214.57394 15.881143 217.219897 16.6573 C 219.619947 17.354858 221.970814 18.219439 224.242988 19.241215 C 226.357793 20.184394 228.384061 21.304417 230.302129 22.591462 C 232.141505 23.829383 233.862851 25.244151 235.436659 26.80629 C 237.000621 28.378252 238.417046 30.087764 239.656409 31.924995 C 240.944972 33.840824 242.066305 35.864728 243.020409 37.967229 C 244.043389 40.246576 244.908985 42.584873 245.617197 44.972292 C 246.394255 47.615155 247.033606 50.297317 247.535265 53.008956 C 248.095924 56.034984 248.548399 59.080665 248.882828 62.13617 C 249.256611 65.574836 249.541856 69.013506 249.738578 72.462003 C 249.964823 76.323139 250.112361 80.194101 250.200884 84.055237 C 250.289421 88.378131 250.338591 92.701032 250.32876 97.014106 L 250.32876 155.225886 C 250.338591 159.54878 250.289421 163.861854 250.200884 168.184747 C 250.112361 172.05571 249.964823 175.916853 249.738578 179.777981 C 249.541856 183.226485 249.256611 186.674975 248.882828 190.103826 C 248.548399 193.15933 248.095924 196.214835 247.535265 199.240851 C 247.033606 201.942664 246.394255 204.624837 245.617197 207.267703 C 244.908985 209.655115 244.043389 212.003235 243.020409 214.272755 C 242.066305 216.38509 240.944972 218.399156 239.656409 220.314999 C 238.417046 222.152226 237.000621 223.871561 235.436659 225.433697 C 233.862851 226.995832 232.141505 228.410601 230.302129 229.648532 C 228.384061 230.935575 226.357793 232.055598 224.242988 232.998768 C 221.970814 234.020552 219.619947 234.885137 217.219897 235.592507 C 214.57394 236.368672 211.888645 237.007276 209.173842 237.498515 C 206.144271 238.068354 203.085193 238.510465 200.026115 238.844519 C 196.583423 239.21785 193.1309 239.502777 189.678362 239.699269 C 185.802873 239.925235 181.927398 240.072615 178.051908 240.161035 C 173.723944 240.249454 169.395994 240.298581 165.06803 240.288762 L 90.941963 240.288762 C 86.614006 240.298581 82.286049 240.249454 77.9581 240.161035 C 74.08261 240.072615 70.20712 239.925235 66.331638 239.699269 C 62.879108 239.502777 59.426578 239.21785 55.983886 238.844519 C 52.924808 238.510465 49.865733 238.068354 46.836162 237.498515 C 44.121356 237.007276 41.436057 236.368672 38.7901 235.592507 C 36.390053 234.885137 34.039187 234.020552 31.767009 232.998768 C 29.652213 232.055598 27.625943 230.935575 25.707871 229.648532 C 23.868489 228.410601 22.147143 226.995832 20.573343 225.433697 C 19.009377 223.871561 17.592955 222.152226 16.353586 220.314999 C 15.065036 218.399156 13.943701 216.38509 12.989584 214.272755 C 11.966612 212.003235 11.101021 209.655115 10.392811 207.267703 C 9.615746 204.624837 8.976389 201.942664 8.47474 199.240851 C 7.914072 196.214835 7.461604 193.15933 7.127172 190.103826 C 6.753394 186.674975 6.468142 183.226485 6.271417 179.777981 C 6.045183 175.916853 5.897639 172.05571 5.809112 168.184747 C 5.720586 163.861854 5.671405 159.54878 5.681241 155.225886 L 5.681241 97.014106 C 5.671405 92.701032 5.720586 88.378131 5.809112 84.055237 C 5.897639 80.194101 6.045183 76.323139 6.271417 72.462003 C 6.468142 69.013506 6.753394 65.574836 7.127172 62.13617 C 7.461604 59.080665 7.914072 56.034984 8.47474 53.008956 C 8.976389 50.297317 9.615746 47.615155 10.392811 44.972292 C 11.101021 42.584873 11.966612 40.246576 12.989584 37.967229 C 13.943701 35.864728 15.065036 33.840824 16.353586 31.924995 C 17.592955 30.087764 19.009377 28.378252 20.573343 26.80629 C 22.147143 25.244151 23.868489 23.829383 25.707871 22.591462 C 27.625943 21.304417 29.652213 20.184394 31.767009 19.241215 C 34.039187 18.219439 36.390053 17.354858 38.7901 16.6573 C 41.436057 15.881143 44.121356 15.242533 46.836162 14.741469 C 49.865733 14.181458 52.924808 13.729518 55.983886 13.395476 C 59.426578 13.022134 62.879108 12.737216 66.331638 12.540721 C 70.20712 12.31475 74.08261 12.167379 77.9581 12.088781 C 82.286049 11.990533 86.614006 11.941409 90.941963 11.951234 L 165.06803 11.951234 Z M 165.077876 15.959741 C 169.376317 15.949916 173.674759 15.99904 177.973216 16.087463 C 181.799522 16.175886 185.625827 16.323257 189.452133 16.539402 C 192.835809 16.735898 196.219486 17.010992 199.583486 17.384332 C 202.554026 17.698726 205.514751 18.131016 208.445953 18.681203 C 211.023049 19.152792 213.580483 19.761928 216.098564 20.498786 C 218.321569 21.147221 220.495374 21.952852 222.600334 22.896029 C 224.508571 23.750785 226.338116 24.762737 228.069293 25.922059 C 229.692286 27.012609 231.207063 28.260355 232.59398 29.645648 C 233.980897 31.030941 235.230091 32.543956 236.331763 34.165043 C 237.492434 35.894202 238.505568 37.711787 239.361333 39.607968 C 240.305606 41.720292 241.112187 43.891565 241.761369 46.102139 C 242.508934 48.617282 243.108947 51.161898 243.590914 53.735987 C 244.131912 56.663768 244.564709 59.6112 244.889308 62.578282 C 245.263091 65.938355 245.538505 69.308252 245.735227 72.687976 C 245.951626 76.509812 246.10901 80.321821 246.187687 84.143656 C 246.276225 88.437084 246.325394 92.720685 246.325394 97.014106 C 246.325394 97.014106 246.325394 97.014106 246.325394 97.014106 L 246.325394 155.225886 C 246.325394 155.225886 246.325394 155.225886 246.325394 155.225886 C 246.325394 159.519306 246.276225 163.802907 246.187687 168.096328 C 246.10901 171.918164 245.951626 175.739999 245.735227 179.552015 C 245.538505 182.931739 245.263091 186.301629 244.889308 189.671533 C 244.564709 192.628784 244.131912 195.576216 243.590914 198.503994 C 243.108947 201.078094 242.508934 203.622706 241.761369 206.137845 C 241.112187 208.358253 240.305606 210.5197 239.361333 212.63202 C 238.505568 214.528209 237.492434 216.355617 236.331763 218.074952 C 235.230091 219.705853 233.980897 221.218876 232.59398 222.604172 C 231.207063 223.979634 229.692286 225.227385 228.069293 226.317935 C 226.338116 227.477251 224.508571 228.489201 222.600334 229.343951 C 220.495374 230.296956 218.321569 231.092775 216.098564 231.741198 C 213.580483 232.478056 211.023049 233.087202 208.445953 233.558787 C 205.514751 234.108972 202.554026 234.541264 199.583486 234.865483 C 196.219486 235.228995 192.835809 235.513922 189.452133 235.70058 C 185.625827 235.916726 181.799522 236.073926 177.973216 236.152526 C 173.674759 236.25078 169.376317 236.290072 165.077876 236.290072 C 165.077876 236.290072 165.077876 236.290072 165.06803 236.290072 L 90.941963 236.290072 C 90.932125 236.290072 90.932125 236.290072 90.932125 236.290072 C 86.633683 236.290072 82.335234 236.25078 78.036784 236.152526 C 74.210479 236.073926 70.384173 235.916726 66.557868 235.70058 C 63.174195 235.513922 59.790522 235.228995 56.426518 234.865483 C 53.455967 234.541264 50.495253 234.108972 47.564048 233.558787 C 44.986944 233.087202 42.429517 232.478056 39.911433 231.741198 C 37.688439 231.092775 35.514626 230.296956 33.409665 229.343951 C 31.501429 228.489201 29.671886 227.477251 27.940703 226.317935 C 26.31772 225.227385 24.802935 223.979634 23.416022 222.604172 C 22.029109 221.218876 20.779904 219.705853 19.678243 218.074952 C 18.517564 216.355617 17.504428 214.528209 16.648674 212.63202 C 15.704392 210.5197 14.897819 208.358253 14.248626 206.137845 C 13.50107 203.622706 12.901057 201.078094 12.419081 198.503994 C 11.878086 195.576216 11.445291 192.628784 11.120694 189.671533 C 10.746916 186.301629 10.471501 182.931739 10.274776 179.552015 C 10.058378 175.739999 9.900997 171.918164 9.822307 168.096328 C 9.733781 163.802907 9.6846 159.519306 9.6846 155.225886 C 9.6846 155.225886 9.6846 155.225886 9.6846 155.225886 L 9.6846 97.014106 C 9.6846 97.014106 9.6846 97.014106 9.6846 97.014106 C 9.6846 92.720685 9.733781 88.437084 9.822307 84.143656 C 9.900997 80.321821 10.058378 76.509812 10.274776 72.687976 C 10.471501 69.308252 10.746916 65.938355 11.120694 62.578282 C 11.445291 59.6112 11.878086 56.663768 12.419081 53.735987 C 12.901057 51.161898 13.50107 48.617282 14.248626 46.102139 C 14.897819 43.891565 15.704392 41.720292 16.648674 39.607968 C 17.504428 37.711787 18.517564 35.894202 19.678243 34.165043 C 20.779904 32.543956 22.029109 31.030941 23.416022 29.645648 C 24.802935 28.260355 26.31772 27.012609 27.940703 25.922059 C 29.671886 24.762737 31.501429 23.750785 33.409665 22.896029 C 35.514626 21.952852 37.688439 21.147221 39.911433 20.498786 C 42.429517 19.761928 44.986944 19.152792 47.564048 18.681203 C 50.495253 18.131016 53.455967 17.698726 56.426518 17.384332 C 59.790522 17.010992 63.174195 16.735898 66.557868 16.539402 C 70.384173 16.323257 74.210479 16.175886 78.036784 16.087463 C 82.335234 15.99904 86.633683 15.949916 90.932125 15.959741 C 90.932125 15.959741 90.932125 15.959741 90.941963 15.959741 L 165.06803 15.959741 C 165.077876 15.959741 165.077876 15.959741 165.077876 15.959741 Z"/>
  </g>
  <g>
   <g style="opacity:0.4" filter="url(#0PdcH0ICZPpAQ0hcS3HqXdXMv1lt8BQZ)">
    <g opacity=".4">
     <path d="M 200.5 94.805145 L 194.318298 94.998512 C 189.793716 94.967529 184.708481 94.948402 184.661896 94.964386 L 180.703796 106.668091 C 180.703796 106.668091 176.048294 94.800987 175.107849 95.026939 L 174.357178 94.98143 C 173.947311 94.954643 172.002029 94.935921 169.318558 94.935921 L 164.399353 94.935921 L 164.399353 115.846764 L 164.399353 137.991684 L 164.006958 138.293091 C 163.664215 138.539413 163.603149 138.619247 163.6828 138.696854 L 175.949509 147.511597 L 175.983643 138.935715 C 176.019516 131.050995 176.031998 130.405899 176.142883 130.763596 L 180.703796 142.774384 L 184.821136 130.29158 L 184.860947 141.636993 L 184.900742 152.982437 L 196.394028 161.126114 L 196.428162 129.501114 L 196.467972 99.087402 L 200.5 94.805145 Z M 98.214851 94.810966 L 96.372284 96.192894 L 94.524033 97.580505 L 94.524033 117.689491 L 94.518349 137.809723 L 113.342087 151.879181 L 123.635437 144.156342 L 123.618256 120.874039 L 123.595543 97.586052 L 121.78141 96.192757 L 119.95591 94.810829 L 109.088181 94.810829 L 98.214851 94.810966 Z M 133.13829 94.810966 L 131.31279 96.192894 L 129.498657 97.586189 L 129.475952 120.874176 L 129.458847 144.156342 L 139.752197 151.879181 L 158.575943 137.809723 L 158.570114 117.689354 L 158.570114 97.580368 L 156.721863 96.192757 L 154.879303 94.810829 L 144.00589 94.810829 L 133.13829 94.810966 Z M 55.500309 94.833679 L 59.674515 98.962387 L 59.674515 128.221649 C 59.674515 144.316879 59.703342 158.594757 59.731384 159.949051 L 59.731384 159.960403 C 59.767624 161.703186 59.807915 164.14209 59.86787 164.106171 C 60.068527 163.986435 89.761169 139.915878 89.798187 139.857101 C 89.82032 139.821228 89.626923 139.644363 89.371674 139.464706 L 88.905342 139.129166 L 88.905342 118.360497 L 88.905342 97.586136 L 87.142395 96.232643 L 85.379448 94.862099 L 70.633232 94.839386 C 61.001671 94.823952 55.452419 94.788956 55.500305 94.833557 L 55.500309 94.833679 Z M 112.807518 103.597137 C 113.316963 103.553612 113.407074 103.567497 114.126884 103.921295 L 114.883247 104.296631 L 114.900307 122.091042 C 114.903221 130.177475 114.860794 140.462906 114.809319 140.459839 L 103.270531 131.792953 L 103.270531 119.384064 L 103.253471 104.290947 L 103.970024 103.961105 L 104.669518 103.636948 L 108.468391 103.636948 C 110.556297 103.636948 112.508415 103.622681 112.807518 103.597145 L 112.807518 103.597137 Z M 140.286774 103.597137 C 140.585861 103.622765 142.537979 103.63694 144.6259 103.63694 L 148.424774 103.63694 L 149.124252 103.961105 L 149.84082 104.290947 L 149.823639 119.384064 L 149.823639 131.792953 L 138.284973 140.459839 C 138.23349 140.462891 138.191071 130.177475 138.193985 122.091042 L 138.211151 104.296631 L 138.967514 103.921295 C 139.687332 103.567497 139.777435 103.553612 140.28688 103.597137 L 140.286774 103.597137 Z M 78.623375 103.744995 L 79.328552 104.063469 L 80.01667 104.37056 L 80.01667 114.885696 L 80.01667 135.267654 L 68.375519 144.099472 C 68.232117 144.148788 68.219337 129.112259 68.250404 117.205963 L 68.278938 103.784805 L 73.994308 103.767624 L 78.623375 103.744995 Z"/>
    </g>
   </g>
   <path fill="#ebdbb2" d="M 200.5 91.893433 L 194.318298 92.086792 C 189.793716 92.055809 184.708481 92.036682 184.661896 92.052673 L 180.703796 103.756378 C 180.703796 103.756378 176.048294 91.889267 175.107849 92.115227 L 174.357178 92.069733 C 173.947311 92.042946 172.002029 92.024239 169.318558 92.024239 L 164.399353 92.024239 L 164.399353 112.935081 L 164.399353 135.079987 L 164.006958 135.381393 C 163.664215 135.627731 163.603149 135.707565 163.6828 135.785172 L 175.949509 144.599915 L 175.983643 136.024017 C 176.019516 128.139297 176.031998 127.494209 176.142868 127.851898 L 180.703796 139.862701 L 184.821136 127.37989 L 184.860931 138.725311 L 184.900742 150.07074 L 196.394028 158.214432 L 196.428162 126.589409 L 196.467972 96.175697 L 200.5 91.893433 Z M 98.214851 91.899124 L 96.372284 93.281044 L 94.524033 94.668655 L 94.524033 114.777649 L 94.518349 134.89801 L 113.342087 148.967484 L 123.635437 141.244629 L 123.618378 117.962334 L 123.595627 94.674347 L 121.781494 93.281044 L 119.955986 91.899124 L 109.088264 91.899124 L 98.214851 91.899124 Z M 133.13829 91.899124 L 131.31279 93.281044 L 129.498657 94.674347 L 129.475906 117.962334 L 129.458847 141.244629 L 139.752197 148.967484 L 158.575943 134.89801 L 158.570251 114.777649 L 158.570251 94.668655 L 156.722 93.281044 L 154.87944 91.899124 L 144.006027 91.899124 L 133.13829 91.899124 Z M 55.500309 91.921875 L 59.674515 96.050583 L 59.674515 125.309845 C 59.674515 141.405075 59.703342 155.682953 59.731384 157.037231 L 59.731384 157.048615 C 59.767624 158.791397 59.807915 161.230301 59.86787 161.194382 C 60.068527 161.074646 89.761169 137.004089 89.798187 136.945313 C 89.82032 136.909439 89.62693 136.732574 89.371674 136.552902 L 88.905342 136.217377 L 88.905342 115.448708 L 88.905342 94.674347 L 87.142395 93.320854 L 85.379448 91.950302 L 70.633232 91.927559 C 61.001675 91.912125 55.452419 91.877121 55.500309 91.921875 Z M 112.807518 100.685432 C 113.316963 100.641899 113.407074 100.655792 114.126884 101.009583 L 114.883247 101.384926 L 114.900307 119.179337 C 114.903221 127.265762 114.860794 137.551193 114.809319 137.548126 L 103.270531 128.881241 L 103.270531 116.472351 L 103.253471 101.379234 L 103.970024 101.049393 L 104.669518 100.725243 L 108.468391 100.725243 C 110.556297 100.725243 112.508415 100.710968 112.807518 100.685432 Z M 140.286774 100.685432 C 140.585861 100.710968 142.537979 100.725243 144.6259 100.725243 L 148.424774 100.725243 L 149.124252 101.049393 L 149.84082 101.379234 L 149.823761 116.472351 L 149.823761 128.881241 L 138.284973 137.548126 C 138.23349 137.551193 138.191071 127.265762 138.193985 119.179337 L 138.211044 101.384926 L 138.967407 101.009583 C 139.68721 100.655792 139.777313 100.641899 140.286774 100.685432 Z M 78.623375 100.83329 L 79.328552 101.151764 L 80.01667 101.458855 L 80.01667 111.973991 L 80.01667 132.355957 L 68.375519 141.187759 C 68.232117 141.237076 68.219345 126.200554 68.250412 114.294258 L 68.278839 100.8731 L 73.994209 100.856041 L 78.623375 100.83329 Z"/>
  </g>
 </g>
</svg>

<svg width="256" height="256" version="1.1" xmlns="http://www.w3.org/2000/svg">
  <defs>
    <linearGradient id="linearGradient31" x1=".5002" x2=".5002" y2="1" gradientTransform="matrix(244,0,0,228,5.986,12)" gradientUnits="userSpaceOnUse">
      <stop stop-color="#ebdbb2" stop-opacity=".2" offset="0"/>
      <stop stop-color="#ebdbb2" stop-opacity=".05" offset=".1"/>
      <stop stop-opacity="0" offset=".7036"/>
      <stop stop-opacity=".1" offset=".8975"/>
      <stop stop-opacity=".2" offset="1"/>
    </linearGradient>
    <linearGradient id="linearGradient6" x1="140" x2="140" y1="12" y2="240" gradientUnits="userSpaceOnUse">
      <stop stop-color="#fb4934" offset="0"/>
      <stop stop-color="#cc241d" offset="1"/>
    </linearGradient>
  </defs>
  <path d="m165 12c72 0 85 15 85 87v56c0 70-13 85-85 85h-74c-72 0-85-15-85-85v-56c0-72 13-87 85-87z" fill="url(#linearGradient6)" style="isolation:isolate"/>
  <path d="m91 12c-72 0-85 15-85 87v56c0 70 13 85 85 85h74c72 0 85-15 85-85v-56c0-72-13-87-85-87zm0 4h74c68 0 80 15 80 83v56c0 66-12 81-80 81h-74c-68 0-80-15-80-81v-56c0-68 12-83 80-83z" fill="url(#linearGradient31)" style="isolation:isolate"/>
  <g transform="matrix(1.36 0 0 1.36 -46.03 -43.21)" style="isolation:isolate">
    <path d="m200.5 94.81-6.182 0.1934c-4.525-0.03098-9.61-0.05011-9.656-0.03412l-3.958 11.7s-4.656-11.87-5.596-11.64l-0.7507-0.04551c-0.4099-0.02679-2.355-0.04551-5.039-0.04551h-4.919v43.06l-0.3924 0.3014c-0.3427 0.2463-0.4038 0.3262-0.3242 0.4038l12.27 8.815 0.0341-8.576c0.0359-7.885 0.0484-8.53 0.1592-8.172l4.561 12.01 4.117-12.48 0.0796 22.69 11.49 8.144 0.0341-31.63 0.0398-30.41zm-102.3 0.0058-1.843 1.382-1.848 1.388v20.11l-0.0057 20.12 18.82 14.07 10.29-7.723-0.0172-23.28-0.0227-23.29-1.814-1.393-1.826-1.382h-10.87zm34.92 0-1.826 1.382-1.814 1.393-0.0227 23.29-0.0171 23.28 10.29 7.723 18.82-14.07-6e-3 -20.12v-20.11l-1.848-1.388-1.843-1.382h-10.87zm-77.64 0.02271 4.174 4.129v29.26c0 16.1 0.02883 30.37 0.05687 31.73v0.0114c0.03624 1.743 0.07653 4.182 0.1365 4.146 0.2007-0.1197 29.89-24.19 29.93-24.25 0.02213-0.0359-0.1713-0.2127-0.4265-0.3924l-0.4663-0.3355v-41.54l-1.763-1.353-1.763-1.371-14.75-0.02271c-9.632-0.01543-15.18-0.05043-15.13-0.0058zm57.31 8.763c0.5094-0.0435 0.5996-0.0296 1.319 0.3242l0.7564 0.3753 0.0171 17.79c3e-3 8.086-0.0395 18.37-0.091 18.37l-11.54-8.667v-12.41l-0.0171-15.09 0.7166-0.3298 0.6995-0.3242h3.799c2.088 0 4.04-0.0143 4.339-0.0398zm27.48 0c0.2991 0.0256 2.251 0.0398 4.339 0.0398h3.799l0.6995 0.3242 0.7166 0.3298-0.0172 15.09v12.41l-11.54 8.667c-0.0515 3e-3 -0.0939-10.28-0.091-18.37l0.0172-17.79 0.7564-0.3753c0.7198-0.3538 0.8099-0.3677 1.319-0.3242zm-61.66 0.1479 0.7052 0.3185 0.6881 0.3071v30.9l-11.64 8.832c-0.1434 0.0493-0.1562-14.99-0.1251-26.89l0.02853-13.42 5.715-0.0172z" fill="#1d2021" opacity=".5" style="isolation:isolate"/>
    <path d="m200.5 91.89-6.182 0.1934c-4.525-0.03098-9.61-0.05011-9.656-0.03412l-3.958 11.7s-4.656-11.87-5.596-11.64l-0.7507-0.0455c-0.4099-0.02679-2.355-0.0455-5.039-0.0455h-4.919v43.06l-0.3924 0.3014c-0.3427 0.2463-0.4038 0.3262-0.3242 0.4038l12.27 8.815 0.0341-8.576c0.0359-7.885 0.0483-8.53 0.1592-8.172l4.561 12.01 4.117-12.48 0.0796 22.7 11.49 8.144 0.0341-31.63 0.0398-30.41zm-102.3 0.0057-1.843 1.382-1.848 1.388v20.11l-0.0057 20.12 18.82 14.07 10.29-7.723-0.0171-23.28-0.0228-23.29-1.814-1.393-1.826-1.382h-10.87zm34.92 0-1.826 1.382-1.814 1.393-0.0228 23.29-0.0171 23.28 10.29 7.723 18.82-14.07-6e-3 -20.12v-20.11l-1.848-1.388-1.843-1.382h-10.87zm-77.64 0.02275 4.174 4.129v29.26c0 16.1 0.02883 30.37 0.05687 31.73v0.0114c0.03624 1.743 0.07653 4.182 0.1365 4.146 0.2007-0.1197 29.89-24.19 29.93-24.25 0.02213-0.0359-0.1713-0.2127-0.4265-0.3924l-0.4663-0.3355v-41.54l-1.763-1.353-1.763-1.371-14.75-0.02275c-9.632-0.01543-15.18-0.05044-15.13-0.0057zm57.31 8.764c0.5094-0.0435 0.5996-0.0296 1.319 0.3242l0.7564 0.3753 0.0171 17.79c3e-3 8.086-0.0395 18.37-0.091 18.37l-11.54-8.667v-12.41l-0.0171-15.09 0.7166-0.3298 0.6995-0.3242h3.799c2.088 0 4.04-0.0143 4.339-0.0398zm27.48 0c0.2991 0.0255 2.251 0.0398 4.339 0.0398h3.799l0.6995 0.3242 0.7166 0.3298-0.0171 15.09v12.41l-11.54 8.667c-0.0515 3e-3 -0.0939-10.28-0.091-18.37l0.0171-17.79 0.7564-0.3753c0.7198-0.3538 0.8099-0.3677 1.319-0.3242zm-61.66 0.1479 0.7052 0.3185 0.6881 0.3071v30.9l-11.64 8.832c-0.1434 0.0493-0.1562-14.99-0.1251-26.89l0.02843-13.42 5.715-0.0171z" fill="#ebdbb2"/>
  </g>
</svg>
